icons/svg/16x16/add squircle/filled.svg

<svg width="16" height="16" fill="none" xmlns="http://www.w3.org/2000/svg">
  <path fill-rule="evenodd" clip-rule="evenodd" d="M11 9H9v2a1 1 0 11-2 0V9H5a1 1 0 110-2h2V5a1 1 0 112 0v2h2a1 1 0 110 2zm3.541-4.688a3.81 3.81 0 00-2.923-2.923A17.243 17.243 0 007.965 1c-1.254 0-2.476.134-3.653.389a3.81 3.81 0 00-2.923 2.923A17.229 17.229 0 001 7.965c0 1.254.134 2.475.389 3.653a3.81 3.81 0 002.923 2.923c1.177.255 2.399.389 3.653.389 1.253 0 2.476-.134 3.653-.389a3.81 3.81 0 002.923-2.923 17.308 17.308 0 000-7.306z" fill="#000"/>
</svg>

<svg xmlns="http://www.w3.org/2000/svg" width="16" height="16" viewBox="0 0 16 16">
  <path fill-rule="evenodd" d="M11,9 L9,9 L9,11 C9,11.553 8.552,12 8,12 C7.448,12 7,11.553 7,11 L7,9 L5,9 C4.448,9 4,8.553 4,8 C4,7.447 4.448,7 5,7 L7,7 L7,5 C7,4.447 7.448,4 8,4 C8.552,4 9,4.447 9,5 L9,7 L11,7 C11.552,7 12,7.447 12,8 C12,8.553 11.552,9 11,9 M14.541,4.312 C14.225,2.847 13.083,1.705 11.618,1.389 C10.441,1.134 9.218,1 7.965,1 C6.711,1 5.489,1.134 4.312,1.389 C2.847,1.705 1.705,2.847 1.389,4.312 C1.134,5.488 1,6.711 1,7.965 C1,9.219 1.134,10.44 1.389,11.618 C1.705,13.083 2.847,14.225 4.312,14.541 C5.489,14.796 6.711,14.93 7.965,14.93 C9.218,14.93 10.441,14.796 11.618,14.541 C13.083,14.225 14.225,13.083 14.541,11.618 C14.795,10.44 14.93,9.219 14.93,7.965 C14.93,6.711 14.795,5.489 14.541,4.312"/>
</svg>
